!!!COM: Bach, Johann Sebastian
!!!CDT: 1685/3//-1750/7/28/
!!!OTL@@DE: Jesu, meiner Seelen Wonne
!!!AGN: 4-Part Chorale
!!!SCT: BH 350
!!!SCT: BWV 360
**harm	**root	**kern	**kern	**kern	**kern
!	!	!bass	!tenor	!alto	!soprno
*	*Iorgan	*Iorgan	*Iorgan	*Iorgan	*Iorgan
*M4/4	*M4/4	*M4/4	*M4/4	*M4/4	*M4/4
*met(c)	*met(c)	*met(c)	*met(c)	*met(c)	*met(c)
*MM60	*MM60	*MM60	*MM60	*MM60	*MM60
*k[b-e-a-d-g-]	*k[b-e-a-d-g-]	*k[b-e-a-d-g-]	*k[b-e-a-d-g-]	*k[b-e-a-d-g-]	*k[b-e-a-d-g-]
*D-:	*D-:	*D-:	*D-:	*D-:	*D-:
*>[A,A,B]	*>[A,A,B]	*>[A,A,B]	*>[A,A,B]	*>[A,A,B]	*>[A,A,B]
*>A	*>A	*>A	*>A	*>A	*>A
=1-	=1-	=1-	=1-	=1-	=1-
I	4BB-	4d-	4a-	4dd-	4ff
IVb	4EE-	4B-	8d-	4dd-	4gg-
.	.	.	8e-	.	.
iii	4DD	4F	4f	4cc	4aa-
vi7	4GG	4B-	4f	8dd-	4aa-
.	.	.	.	8cc	.
=2	=2	=2	=2	=2	=2
ii	4CC	4E-	4g-	8b-	4gg-
.	.	.	.	8cc	.
I	4BB-	4D-	4a-	4dd-	4ff
V	4FF	4A-	4a-	4cc	4ee-
V;	4FF;	4A-;	4a-;	4cc;	4ee-;
=3	=3	=3	=3	=3	=3
I	4BB-	4D-	4a-	4dd-	4ff
ii	4CC	4E-	4g-	8cc	4gg-
.	.	.	.	8b-	.
iii	4DD	4F	8f	4a-	4aa-
.	.	.	8e-	.	.
vi	4GG	8B-	4d-	4b-	4ff
.	.	8A-	.	.	.
=4	=4	=4	=4	=4	=4
ii7b	4CC	4G-	4d-	4b-	4.ee-
V	4FF	4A-	4c	4a-	.
.	.	.	.	.	8ee-
I;	2BB-;	2D-;	2f;	2a-;	2dd-;
=:|!	=:|!	=:|!	=:|!	=:|!	=:|!
*>B	*>B	*>B	*>B	*>B	*>B
=5	=5	=5	=5	=5	=5
V	4FF	4A-	4a-	4cc	4ee-
viiob/ii	4BB	4F	4A-	4dd	4ff
ii	4CC	8E-	4B-	4ee-	4gg-
.	.	8F	.	.	.
iib	4CC	8G-	4e-	4b-	4gg-
.	.	8A-	.	.	.
=6	=6	=6	=6	=6	=6
V/ii	4GG	4B-	8e-	4b-	4.ff
.	.	.	8c	.	.
V7/ii	4GG	4BB-	4d	8a-	.
.	.	.	.	8g-	8ee-
ii;	2CC;	2E-;	2B-;	2g-;	2ee-;
!!linebreak: 2
=7	=7	=7	=7	=7	=7
ii	4CC	4e-	4e-	4b-	4gg-
V7/IV	4BB-	8d-	4f	4dd-	4aa-
.	.	8c-	.	.	.
IVb	4EE-	8B-	4g-	4dd-	4bb-
.	.	8A-	.	.	.
IV	4EE-	4G-	4g-	4dd-	4bb-
=8	=8	=8	=8	=8	=8
V/IV	4BB-	4d-	8g-	4dd-	4aa-
.	.	.	8e-	.	.
V7/IV	4BB-	4D-	4f	8dd-	8.aa-
.	.	.	.	8cc-	.
.	.	.	.	.	16gg-
IV;	2EE-;	2G-;	2d-;	2b-;	2gg-;
=9	=9	=9	=9	=9	=9
vi	4GG	4B-	4d-	4b-	4ff
IV	4EE-	8A-	4d-	4b-	4gg-
.	.	8G-	.	.	.
Vb/IV	4BB-	4F	8d-	4a-	4aa-
.	.	.	8c-	.	.
IV	4EE-	4G-	4B-	4g-	4dd-
=10	=10	=10	=10	=10	=10
V7b	4FF	4C	4e-	4a-	4gg-
I	4BB-	4D-	4d-	4a-	4ff
V	4FF	4A-	4c	4a-	4ee-
V;	4FF;	4A-;	4c;	4a-;	4ee-;
=11	=11	=11	=11	=11	=11
I	4BB-	4d-	4d-	4a-	4ff
IVb	4EE-	8c	4d-	4b-	4gg-
.	.	8B-	.	.	.
V	4FF	8c	4e-	4a-	4aa-
.	.	8A-	.	.	.
I	4BB-	4d-	4d-	4a-	4ff
=12	=12	=12	=12	=12	=12
ii7b	4CC	4G-	4d-	4b-	4ee-
V	4FF	4A-	4c	4a-	4ee-
I	4BB-	4D-	4f	4a-	4dd-
I;	4BB-;	4D-;	4f;	4a-;	4dd-;
==	==	==	==	==	==
*-	*-	*-	*-	*-	*-
!!chor2scor: -l 2 -s 0.6 -o %b.pmx
!!!YEC: Copyright 1994, David Huron
!!!YEC: Changes/Additions 2001 by Craig Stuart Sapp
!!!YEN: United States of America
!!!SMA: 371 Bach Chorales, edited by Ludwig Erk, C.F. Peters
!!!PDT: 1850, 1865
!!!ONB: Harmony and Root analysis done manually
